X: 6
T:Collín , collín , collín toxos e froles
M:2/4
L:1/8
Q:300
C:Trad
R:Pasodoble
B:Os Segredos da Gaita. FOXO
K:C
G2 | E>{C}E {B}E>{C}E | {B}E>D E>F |G4 |
E>G F>E | D>{B,}D {B}D>{B,}D | {B} D>A G>F |
G4 | E2G2 | E>{C}E {B}E>{C}E |
{B}E>D E>F | G4 | E>G F>E |
D>{B,}D {B} D>{B,}D | {B}D>A G>F | G4 |
E2C2 |  A>A A>A | A2 (3ABA | G>G G>G |
G2 (3GAG | F>F F>F | F2G2 |
E>D E>F | G2 C2 | A>A A>A|
A2 (3ABA | G>G G>G |G2 (3GAG |
F>F F>F | F2G2 |E4- |E2 ||

